SVG_Azure_Grouped/Data/Elasticsearch.svg

<?xml version="1.0" encoding="UTF-8" standalone="no"?>
<!-- Generated by Microsoft Visio, SVG Export Elasticsearch.svg Page-1 -->

<svg
   xmlns:dc="http://purl.org/dc/elements/1.1/"
   xmlns:cc="http://creativecommons.org/ns#"
   xmlns:rdf="http://www.w3.org/1999/02/22-rdf-syntax-ns#"
   xmlns:svg="http://www.w3.org/2000/svg"
   xmlns="http://www.w3.org/2000/svg"
   xmlns:sodipodi="http://sodipodi.sourceforge.net/DTD/sodipodi-0.dtd"
   xmlns:inkscape="http://www.inkscape.org/namespaces/inkscape"
   width="0.78735912in"
   height="0.78735912in"
   viewBox="0 0 56.689855 56.689997"
   xml:space="preserve"
   class="st8"
   version="1.1"
   id="svg49"
   sodipodi:docname="Elasticsearch.svg"
   style="font-size:12px;overflow:visible;color-interpolation-filters:sRGB;fill:none;fill-rule:evenodd;stroke-linecap:square;stroke-miterlimit:3"
   inkscape:version="0.92.5 (2060ec1f9f, 2020-04-08)"><metadata
   id="metadata55"><rdf:RDF><cc:Work
       rdf:about=""><dc:format>image/svg+xml</dc:format><dc:type
         rdf:resource="http://purl.org/dc/dcmitype/StillImage" /></cc:Work></rdf:RDF></metadata><defs
   id="defs53" /><sodipodi:namedview
   pagecolor="#ffffff"
   bordercolor="#666666"
   borderopacity="1"
   objecttolerance="10"
   gridtolerance="10"
   guidetolerance="10"
   inkscape:pageopacity="0"
   inkscape:pageshadow="2"
   inkscape:window-width="640"
   inkscape:window-height="480"
   id="namedview51"
   showgrid="false"
   inkscape:zoom="1.8365233"
   inkscape:cx="37.795184"
   inkscape:cy="18.900351"
   inkscape:window-x="0"
   inkscape:window-y="0"
   inkscape:window-maximized="0"
   inkscape:current-layer="svg49" />
	<style
   type="text/css"
   id="style2">
	<![CDATA[
		.st1 {fill:#ffffff;stroke:none;stroke-linecap:butt;stroke-width:2.448}
		.st2 {fill:#f4bd19;stroke:none;stroke-linecap:butt;stroke-width:2.448}
		.st3 {fill:#3cbeb1;stroke:none;stroke-linecap:butt;stroke-width:2.448}
		.st4 {fill:#e9478c;stroke:none;stroke-linecap:butt;stroke-width:2.448}
		.st5 {fill:#2c458f;stroke:none;stroke-linecap:butt;stroke-width:2.448}
		.st6 {fill:#95c63d;stroke:none;stroke-linecap:butt;stroke-width:2.448}
		.st7 {fill:#176655;stroke:none;stroke-linecap:butt;stroke-width:2.448}
		.st8 {fill:none;fill-rule:evenodd;font-size:12px;overflow:visible;stroke-linecap:square;stroke-miterlimit:3}
	]]>
	</style>

	<g
   id="g47"
   transform="translate(-5.6693772,-5.6743)">
		<title
   id="title4">Page-1</title>
		<g
   id="group19399-1"
   transform="translate(5.66929,-34.0157)">
			<title
   id="title6">Elasticsearch.19399</title>
			<g
   id="group19400-2">
				<title
   id="title8">Sheet.19400</title>
				<g
   id="shape19401-3">
					<title
   id="title10">Sheet.19401</title>
					<path
   d="m 56.69,69.38 c 0,-4.79 -2.96,-8.92 -7.36,-10.55 a 16.6648,16.7332 -180 0 0 0.28,-3.07 c 0,-8.87 -7.17,-16.07 -16.01,-16.07 -5.14,0 -9.95,2.46 -12.96,6.69 -1.48,-1.17 -3.29,-1.77 -5.18,-1.77 -4.68,0 -8.52,3.81 -8.52,8.55 0,1.02 0.19,2.05 0.51,2.98 C 3.01,57.67 0,61.94 0,66.68 c 0,4.79 2.96,8.97 7.4,10.6 -0.18,0.97 -0.27,2 -0.27,3.07 0,8.83 7.17,16.03 15.96,16.03 5.19,0 9.95,-2.51 12.96,-6.69 1.48,1.16 3.33,1.81 5.23,1.81 4.68,0 8.52,-3.81 8.52,-8.55 0,-1.02 -0.19,-2.05 -0.51,-2.98 4.35,-1.58 7.4,-5.85 7.4,-10.59 z"
   class="st1"
   id="path12"
   inkscape:connector-curvature="0"
   style="fill:#ffffff;stroke:none;stroke-width:2.44799995;stroke-linecap:butt" />
				</g>
				<g
   id="shape19402-5"
   transform="translate(19.7152,-26.5341)">
					<title
   id="title15">Sheet.19402</title>
					<path
   d="m 2.45,90.57 12.64,5.81 12.77,-11.25 a 14.2445,14.303 -180 0 0 0.28,-2.83 c 0,-7.9 -6.39,-14.31 -14.26,-14.31 -4.72,0 -9.11,2.32 -11.75,6.22 L 0,85.27 Z"
   class="st2"
   id="path17"
   inkscape:connector-curvature="0"
   style="fill:#f4bd19;stroke:none;stroke-width:2.44799995;stroke-linecap:butt" />
				</g>
				<g
   id="shape19403-7"
   transform="translate(8.7932,-1.67289)">
					<title
   id="title20">Sheet.19403</title>
					<path
   d="M 0.28,79.14 C 0.09,80.07 0,81.04 0,82.02 c 0,7.9 6.43,14.36 14.3,14.36 4.77,0 9.16,-2.37 11.85,-6.28 l 2.08,-11.06 -2.82,-5.39 -12.68,-5.8 z"
   class="st3"
   id="path22"
   inkscape:connector-curvature="0"
   style="fill:#3cbeb1;stroke:none;stroke-width:2.44799995;stroke-linecap:butt" />
				</g>
				<g
   id="shape19404-9"
   transform="translate(8.56175,-38.8486)">
					<title
   id="title25">Sheet.19404</title>
					<path
   d="m 0.42,94.33 8.65,2.05 1.94,-9.9 C 9.81,85.55 8.38,85.09 6.85,85.09 3.1,85.09 0,88.15 0,91.96 c 0,0.79 0.14,1.63 0.42,2.37 z"
   class="st4"
   id="path27"
   inkscape:connector-curvature="0"
   style="fill:#e9478c;stroke:none;stroke-width:2.44799995;stroke-linecap:butt" />
				</g>
				<g
   id="shape19405-11"
   transform="translate(1.66606,-20.7255)">
					<title
   id="title30">Sheet.19405</title>
					<path
   d="M 6.57,78.3 C 2.68,79.56 0,83.32 0,87.41 c 0,4 2.45,7.57 6.16,8.97 L 18.33,85.32 16.11,80.53 Z"
   class="st5"
   id="path32"
   inkscape:connector-curvature="0"
   style="fill:#2c458f;stroke:none;stroke-width:2.44799995;stroke-linecap:butt" />
				</g>
				<g
   id="shape19406-13"
   transform="translate(37.1627,-6.55213)">
					<title
   id="title35">Sheet.19406</title>
					<path
   d="m 0,94.94 c 1.2,0.93 2.64,1.44 4.12,1.44 3.75,0 6.85,-3.07 6.85,-6.88 0,-0.84 -0.14,-1.63 -0.42,-2.37 L 1.9,85.09 Z"
   class="st6"
   id="path37"
   inkscape:connector-curvature="0"
   style="fill:#95c63d;stroke:none;stroke-width:2.44799995;stroke-linecap:butt" />
				</g>
				<g
   id="shape19407-15"
   transform="translate(36.376,-17.8908)">
					<title
   id="title40">Sheet.19407</title>
					<path
   d="m 2.55,94.15 9.53,2.23 c 3.89,-1.3 6.57,-5.02 6.57,-9.11 0,-4 -2.45,-7.53 -6.15,-8.97 L 0,89.27 Z"
   class="st7"
   id="path42"
   inkscape:connector-curvature="0"
   style="fill:#176655;stroke:none;stroke-width:2.44799995;stroke-linecap:butt" />
				</g>
			</g>
		</g>
	</g>
</svg>

<?xml version="1.0" encoding="UTF-8" standalone="no"?>
<!DOCTYPE svg PUBLIC "-//W3C//DTD SVG 1.1//EN" "http://www.w3.org/Graphics/SVG/1.1/DTD/svg11.dtd">
<!-- Generated by Microsoft Visio, SVG Export Elasticsearch.svg Page-1 -->
<svg xmlns="http://www.w3.org/2000/svg" xmlns:xlink="http://www.w3.org/1999/xlink" xmlns:ev="http://www.w3.org/2001/xml-events"
		width="0.944882in" height="1.33858in" viewBox="0 0 68.0315 96.378" xml:space="preserve" color-interpolation-filters="sRGB"
		class="st8">
	<style type="text/css">
	<![CDATA[
		.st1 {fill:#ffffff;stroke:none;stroke-linecap:butt;stroke-width:2.448}
		.st2 {fill:#f4bd19;stroke:none;stroke-linecap:butt;stroke-width:2.448}
		.st3 {fill:#3cbeb1;stroke:none;stroke-linecap:butt;stroke-width:2.448}
		.st4 {fill:#e9478c;stroke:none;stroke-linecap:butt;stroke-width:2.448}
		.st5 {fill:#2c458f;stroke:none;stroke-linecap:butt;stroke-width:2.448}
		.st6 {fill:#95c63d;stroke:none;stroke-linecap:butt;stroke-width:2.448}
		.st7 {fill:#176655;stroke:none;stroke-linecap:butt;stroke-width:2.448}
		.st8 {fill:none;fill-rule:evenodd;font-size:12px;overflow:visible;stroke-linecap:square;stroke-miterlimit:3}
	]]>
	</style>

	<g>
		<title>Page-1</title>
		<g id="group18963-1" transform="translate(5.66929,-34.0157)">
			<title>Elasticsearch.18963</title>
			<g id="group18964-2">
				<title>Sheet.18964</title>
				<g id="shape18965-3">
					<title>Sheet.18965</title>
					<path d="M56.69 69.38 C56.69 64.59 53.73 60.46 49.33 58.83 A16.6648 16.7332 -180 0 0 49.61 55.76 C49.61 46.89
								 42.44 39.69 33.6 39.69 C28.46 39.69 23.65 42.15 20.64 46.38 C19.16 45.21 17.35 44.61 15.46 44.61
								 C10.78 44.61 6.94 48.42 6.94 53.16 C6.94 54.18 7.13 55.21 7.45 56.14 C3.01 57.67 0 61.94 0 66.68
								 C0 71.47 2.96 75.65 7.4 77.28 C7.22 78.25 7.13 79.28 7.13 80.35 C7.13 89.18 14.3 96.38 23.09 96.38
								 C28.28 96.38 33.04 93.87 36.05 89.69 C37.53 90.85 39.38 91.5 41.28 91.5 C45.96 91.5 49.8 87.69 49.8
								 82.95 C49.8 81.93 49.61 80.9 49.29 79.97 C53.64 78.39 56.69 74.12 56.69 69.38 L56.69 69.38 Z"
							class="st1"/>
				</g>
				<g id="shape18966-5" transform="translate(19.7152,-26.5341)">
					<title>Sheet.18966</title>
					<path d="M2.45 90.57 L15.09 96.38 L27.86 85.13 A14.2445 14.303 -180 0 0 28.14 82.3 C28.14 74.4 21.75 67.99 13.88
								 67.99 C9.16 67.99 4.77 70.31 2.13 74.21 L0 85.27 L2.45 90.57 L2.45 90.57 Z" class="st2"/>
				</g>
				<g id="shape18967-7" transform="translate(8.7932,-1.67289)">
					<title>Sheet.18967</title>
					<path d="M0.28 79.14 C0.09 80.07 0 81.04 0 82.02 C0 89.92 6.43 96.38 14.3 96.38 C19.07 96.38 23.46 94.01 26.15
								 90.1 L28.23 79.04 L25.41 73.65 L12.73 67.85 L0.28 79.14 Z" class="st3"/>
				</g>
				<g id="shape18968-9" transform="translate(8.56175,-38.8486)">
					<title>Sheet.18968</title>
					<path d="M0.42 94.33 L9.07 96.38 L11.01 86.48 C9.81 85.55 8.38 85.09 6.85 85.09 C3.1 85.09 0 88.15 0 91.96 C0
								 92.75 0.14 93.59 0.42 94.33 L0.42 94.33 Z" class="st4"/>
				</g>
				<g id="shape18969-11" transform="translate(1.66606,-20.7255)">
					<title>Sheet.18969</title>
					<path d="M6.57 78.3 C2.68 79.56 0 83.32 0 87.41 C0 91.41 2.45 94.98 6.16 96.38 L18.33 85.32 L16.11 80.53 L6.57
								 78.3 L6.57 78.3 Z" class="st5"/>
				</g>
				<g id="shape18970-13" transform="translate(37.1627,-6.55213)">
					<title>Sheet.18970</title>
					<path d="M0 94.94 C1.2 95.87 2.64 96.38 4.12 96.38 C7.87 96.38 10.97 93.31 10.97 89.5 C10.97 88.66 10.83 87.87
								 10.55 87.13 L1.9 85.09 L0 94.94 Z" class="st6"/>
				</g>
				<g id="shape18971-15" transform="translate(36.376,-17.8908)">
					<title>Sheet.18971</title>
					<path d="M2.55 94.15 L12.08 96.38 C15.97 95.08 18.65 91.36 18.65 87.27 C18.65 83.27 16.2 79.74 12.5 78.3 L0 89.27
								 L2.55 94.15 L2.55 94.15 Z" class="st7"/>
				</g>
			</g>
		</g>
	</g>
</svg>
